packages/components/icons/assets/PinOutline.svg

<svg viewBox="0 0 24 24" xmlns="http://www.w3.org/2000/svg" data-title="PinOutline" fill="currentColor" stroke="none">
  <path fill-rule="evenodd" clip-rule="evenodd" d="M15.3754 8.89783C15.3754 10.7038 13.8643 12.1678 12.0003 12.1678C10.1363 12.1678 8.6252 10.7038 8.6252 8.89783C8.6252 7.09187 10.1363 5.62785 12.0003 5.62785C13.8643 5.62785 15.3754 7.09187 15.3754 8.89783ZM13.3044 8.89783C13.3044 9.59562 12.7205 10.1613 12.0003 10.1613C11.2801 10.1613 10.6962 9.59562 10.6962 8.89783C10.6962 8.20004 11.2801 7.63437 12.0003 7.63437C12.7205 7.63437 13.3044 8.20004 13.3044 8.89783Z"/>
  <path fill-rule="evenodd" clip-rule="evenodd" d="M12 2.00024C7.58172 2.00024 4 5.47039 4 9.75102C4 10.8868 4.41304 12.2052 4.97459 13.4754C5.5461 14.7681 6.31556 16.1078 7.12222 17.3163C7.92805 18.5235 8.78895 19.6265 9.55506 20.44C9.9359 20.8445 10.3142 21.1998 10.6676 21.4625C10.8442 21.5938 11.0353 21.7176 11.2346 21.8123C11.4223 21.9016 11.6899 22.0002 12 22.0002C12.3101 22.0002 12.5777 21.9016 12.7654 21.8123C12.9647 21.7176 13.1558 21.5938 13.3324 21.4625C13.6858 21.1998 14.0641 20.8445 14.4449 20.44C15.211 19.6265 16.0719 18.5235 16.8778 17.3163C17.6844 16.1078 18.4539 14.7681 19.0254 13.4754C19.587 12.2052 20 10.8868 20 9.75102C20 5.47039 16.4183 2.00024 12 2.00024ZM6.07104 9.75102C6.07104 6.57856 8.72552 4.00676 12 4.00676C15.2745 4.00676 17.929 6.57856 17.929 9.75102C17.929 10.4785 17.6468 11.4975 17.1217 12.6853C16.6065 13.8506 15.8978 15.0894 15.1387 16.2266C14.3788 17.3651 13.5862 18.3749 12.915 19.0877C12.5772 19.4464 12.2909 19.7076 12.0715 19.8707C12.0456 19.89 12.0218 19.907 12 19.922C11.9782 19.907 11.9544 19.89 11.9285 19.8707C11.7091 19.7076 11.4228 19.4464 11.085 19.0877C10.4138 18.3749 9.62122 17.3651 8.86127 16.2266C8.10215 15.0894 7.39349 13.8506 6.87834 12.6853C6.35322 11.4975 6.07104 10.4785 6.07104 9.75102Z"/>
</svg>

<svg viewBox="0 0 24 24" xmlns="http://www.w3.org/2000/svg" data-title="PinOutline" fill="currentColor" stroke="none">
  <path fill-rule="evenodd" d="m15.38,8.9c0,1.81-1.51,3.27-3.38,3.27s-3.38-1.46-3.38-3.27,1.51-3.27,3.38-3.27,3.38,1.46,3.38,3.27Zm-2.07,0c0,.7-.58,1.26-1.3,1.26s-1.3-.57-1.3-1.26.58-1.26,1.3-1.26,1.3.57,1.3,1.26Z"/>
  <path fill-rule="evenodd" d="m12,2c-4.42,0-8,3.47-8,7.75,0,1.14.41,2.45.97,3.72.57,1.29,1.34,2.63,2.15,3.84.81,1.21,1.67,2.31,2.43,3.12.38.4.76.76,1.11,1.02.18.13.37.26.57.35.19.09.46.19.77.19s.58-.1.77-.19c.2-.09.39-.22.57-.35.35-.26.73-.62,1.11-1.02.77-.81,1.63-1.92,2.43-3.12.81-1.21,1.58-2.55,2.15-3.84.56-1.27.97-2.59.97-3.72,0-4.28-3.58-7.75-8-7.75Zm-5.93,7.75c0-3.17,2.65-5.74,5.93-5.74s5.93,2.57,5.93,5.74c0,.73-.28,1.75-.81,2.93-.52,1.17-1.22,2.4-1.98,3.54-.76,1.14-1.55,2.15-2.22,2.86-.34.36-.62.62-.84.78-.03.02-.05.04-.07.05-.02-.02-.05-.03-.07-.05-.22-.16-.51-.42-.84-.78-.67-.71-1.46-1.72-2.22-2.86-.76-1.14-1.47-2.38-1.98-3.54-.53-1.19-.81-2.21-.81-2.93Z"/>
</svg>
